img/airbnb.svg

<svg width="56" height="18" viewBox="0 0 56 18" fill="none" xmlns="http://www.w3.org/2000/svg">
<g clip-path="url(#clip0_323_44)">
<path d="M29.5134 4.79312C29.5134 5.4228 29.006 5.92983 28.3763 5.92983C27.7467 5.92983 27.2396 5.4228 27.2396 4.79312C27.2396 4.16344 27.7294 3.65641 28.3763 3.65641C29.0238 3.67389 29.5134 4.18109 29.5134 4.79312ZM24.8261 7.08436V7.36425C24.8261 7.36425 24.2841 6.66434 23.1298 6.66434C21.2236 6.66434 19.7368 8.11606 19.7368 10.1272C19.7368 12.1211 21.2062 13.5901 23.1298 13.5901C24.3016 13.5901 24.8261 12.8731 24.8261 12.8731V13.1703C24.8261 13.3102 24.9313 13.4149 25.071 13.4149H26.4875V6.83871H25.071C24.9313 6.83923 24.8261 6.96188 24.8261 7.08436ZM24.8261 11.299C24.564 11.6839 24.0392 12.0163 23.4097 12.0163C22.2904 12.0163 21.4333 11.3167 21.4333 10.1272C21.4333 8.93793 22.2904 8.23836 23.4097 8.23836C24.0219 8.23836 24.5815 8.58814 24.8261 8.9554V11.299ZM27.537 6.83923H29.2158V13.4154H27.537V6.83923ZM52.6166 6.66417C51.4623 6.66417 50.92 7.36408 50.92 7.36408V3.67389H49.2411V13.4154H50.6579C50.7978 13.4154 50.9025 13.2929 50.9025 13.1704V12.8732C50.9025 12.8732 51.4448 13.5903 52.5988 13.5903C54.5053 13.5903 55.9918 12.1216 55.9918 10.1277C55.9918 8.13388 54.5053 6.66417 52.6166 6.66417ZM52.3367 11.9986C51.6894 11.9986 51.1824 11.6667 50.92 11.2816V8.93793C51.1824 8.58814 51.742 8.22089 52.3367 8.22089C53.456 8.22089 54.313 8.92045 54.313 10.1097C54.313 11.299 53.4561 11.9986 52.3367 11.9986ZM48.3668 9.51537V13.4329H46.6876V9.70755C46.6876 8.62344 46.3379 8.18595 45.394 8.18595C44.887 8.18595 44.3622 8.44837 44.0293 8.83327V13.4156H42.3508V6.83941H43.6796C43.8195 6.83941 43.9245 6.96188 43.9245 7.08436V7.36425C44.4142 6.85688 45.0612 6.66434 45.7082 6.66434C46.4429 6.66434 47.0551 6.87452 47.5448 7.29419C48.1392 7.78392 48.3668 8.41343 48.3668 9.51537ZM38.2752 6.66417C37.1212 6.66417 36.5789 7.36408 36.5789 7.36408V3.67389H34.9001V13.4154H36.3165C36.4564 13.4154 36.5614 13.2929 36.5614 13.1704V12.8732C36.5614 12.8732 37.1037 13.5903 38.2578 13.5903C40.1643 13.5903 41.6507 12.1216 41.6507 10.1277C41.6682 8.1337 40.1817 6.66417 38.2752 6.66417ZM37.9953 11.9986C37.3484 11.9986 36.8413 11.6667 36.5789 11.2816V8.93793C36.8413 8.58814 37.401 8.22089 37.9953 8.22089C39.1149 8.22089 39.9717 8.92045 39.9717 10.1097C39.9717 11.299 39.1149 11.9986 37.9953 11.9986ZM33.4483 6.66417C33.9554 6.66417 34.2178 6.75187 34.2178 6.75187V8.30825C34.2178 8.30825 32.8187 7.83599 31.9444 8.83309V13.4327H30.2652V6.83923H31.682C31.8219 6.83923 31.9266 6.96171 31.9266 7.08418V7.36408C32.2417 6.99665 32.9238 6.66417 33.4483 6.66417ZM16.0118 12.8207C15.9245 12.6108 15.8369 12.3835 15.7496 12.191C15.6095 11.8763 15.4695 11.5788 15.3474 11.299L15.3299 11.2816C14.123 8.65803 12.829 5.99989 11.4647 3.3767L11.4123 3.27151C11.2688 2.99939 11.1289 2.72535 10.9928 2.44947C10.8177 2.13446 10.643 1.8025 10.3631 1.48748C9.80347 0.787916 8.9989 0.403015 8.14209 0.403015C7.26746 0.403015 6.48054 0.787918 5.90363 1.45237C5.6412 1.76703 5.44867 2.09934 5.27395 2.41436C5.13745 2.69006 4.99761 2.96409 4.85446 3.2364L4.80187 3.34157C3.45515 5.96477 2.14356 8.62309 0.936794 11.2465L0.91915 11.2812C0.796849 11.5615 0.656725 11.8587 0.516777 12.1732C0.429419 12.3657 0.342061 12.5755 0.254703 12.8028C0.0272223 13.4498 -0.0428422 14.062 0.0448653 14.6919C0.237228 16.0036 1.11151 17.1051 2.31845 17.5951C2.77323 17.7877 3.24549 17.875 3.73505 17.875C3.87499 17.875 4.04972 17.8576 4.18984 17.8399C4.7671 17.77 5.36166 17.5778 5.93892 17.2455C6.65596 16.8432 7.33805 16.2662 8.1075 15.4267C8.87695 16.2662 9.57651 16.8432 10.2761 17.2455C10.8535 17.5778 11.4479 17.77 12.025 17.8399C12.1649 17.8577 12.34 17.875 12.4799 17.875C12.9697 17.875 13.4592 17.7877 13.8964 17.5951C15.1208 17.1051 15.9776 15.9862 16.1701 14.6919C16.309 14.0798 16.2391 13.468 16.0118 12.8207ZM8.12445 13.7301C7.17993 12.5408 6.56772 11.4215 6.35806 10.4774C6.2707 10.075 6.25306 9.7252 6.30565 9.41036C6.34042 9.13046 6.4456 8.88551 6.58554 8.67567C6.91785 8.20376 7.47747 7.90622 8.12462 7.90622C8.77195 7.90622 9.34903 8.18612 9.66387 8.67567C9.80382 8.88551 9.90865 9.13064 9.94394 9.41036C9.99618 9.72538 9.97871 10.0925 9.89135 10.4774C9.68082 11.4041 9.06861 12.5235 8.12445 13.7301ZM15.1023 14.5521C14.98 15.4615 14.3678 16.2488 13.5109 16.5985C13.0913 16.7733 12.6363 16.8259 12.1819 16.7733C11.7447 16.7207 11.3073 16.5807 10.8528 16.3187C10.2231 15.9685 9.59364 15.4267 8.85896 14.622C10.0131 13.2056 10.7127 11.9111 10.9751 10.7571C11.0976 10.2148 11.1152 9.7252 11.0625 9.27024C10.9928 8.8331 10.8352 8.43072 10.5904 8.08094C10.0479 7.29367 9.13832 6.83923 8.12427 6.83923C7.11022 6.83923 6.20064 7.31149 5.6585 8.08094C5.41372 8.43072 5.25613 8.8331 5.18624 9.27024C5.11635 9.7252 5.13365 10.2322 5.2736 10.7571C5.53585 11.9111 6.25289 13.2229 7.38959 14.6395C6.67256 15.444 6.0254 15.9863 5.39573 16.3361C4.94094 16.5986 4.50398 16.7385 4.06684 16.7907C3.59475 16.8433 3.13979 16.7733 2.7376 16.616C1.88079 16.2662 1.26858 15.479 1.14628 14.5696C1.09386 14.1324 1.12863 13.6953 1.3037 13.2056C1.35594 13.0305 1.44365 12.8558 1.531 12.6459C1.65348 12.366 1.79308 12.0685 1.9332 11.7713L1.95085 11.7365C3.15744 9.13046 4.45156 6.47215 5.79828 3.8839L5.85069 3.77872C5.99081 3.51664 6.13076 3.23675 6.27053 2.97432C6.41048 2.69443 6.56772 2.432 6.76026 2.20452C7.12751 1.7852 7.61707 1.55754 8.15939 1.55754C8.70171 1.55754 9.19127 1.7852 9.55852 2.20452C9.75106 2.43252 9.9083 2.69495 10.0482 2.97432C10.1884 3.23675 10.3283 3.51664 10.4679 3.77872L10.5205 3.8839C11.8467 6.4829 13.1236 9.10674 14.3506 11.754V11.7715C14.4908 12.0517 14.6131 12.3662 14.753 12.6465C14.8404 12.8559 14.9279 13.0307 14.9803 13.2057C15.1199 13.66 15.1723 14.0975 15.1023 14.5521Z" fill="#FF5A5F"/>
</g>
<defs>
<clipPath id="clip0_323_44">
<rect width="56" height="17.472" fill="white" transform="translate(0 0.403198)"/>
</clipPath>
</defs>
</svg>

<svg width="56" height="18" fill="none" xmlns="http://www.w3.org/2000/svg"><g clip-path="url(#a)"><path d="M29.513 4.793c0 .63-.507 1.137-1.137 1.137s-1.136-.507-1.136-1.137.49-1.137 1.136-1.137c.648.018 1.137.525 1.137 1.137Zm-4.687 2.291v.28s-.542-.7-1.696-.7c-1.906 0-3.393 1.452-3.393 3.463 0 1.994 1.47 3.463 3.393 3.463 1.172 0 1.696-.717 1.696-.717v.297c0 .14.105.245.245.245h1.416V6.839h-1.416a.251.251 0 0 0-.245.245Zm0 4.215c-.262.385-.787.717-1.416.717-1.12 0-1.977-.7-1.977-1.889 0-1.19.857-1.889 1.977-1.889.612 0 1.171.35 1.416.717V11.3Zm2.711-4.46h1.679v6.576h-1.679V6.84Zm25.08-.175c-1.155 0-1.697.7-1.697.7v-3.69h-1.679v9.741h1.417a.25.25 0 0 0 .245-.245v-.297s.542.717 1.696.717c1.906 0 3.393-1.468 3.393-3.462 0-1.994-1.487-3.464-3.375-3.464ZM52.337 12a1.712 1.712 0 0 1-1.417-.717V8.938c.262-.35.822-.717 1.417-.717 1.119 0 1.976.7 1.976 1.889s-.857 1.889-1.976 1.889Zm-3.97-2.484v3.918h-1.68V9.708c0-1.085-.35-1.522-1.293-1.522-.507 0-1.032.262-1.365.647v4.583h-1.678V6.839h1.329a.25.25 0 0 1 .245.245v.28c.49-.507 1.136-.7 1.783-.7.735 0 1.347.21 1.837.63.594.49.822 1.12.822 2.221Zm-10.092-2.85c-1.154 0-1.696.7-1.696.7V3.673H34.9v9.741h1.416a.25.25 0 0 0 .245-.245v-.297s.543.717 1.697.717c1.906 0 3.393-1.468 3.393-3.462.017-1.994-1.47-3.464-3.376-3.464Zm-.28 5.334a1.712 1.712 0 0 1-1.416-.717V8.938c.262-.35.822-.717 1.416-.717 1.12 0 1.977.7 1.977 1.889s-.857 1.889-1.977 1.889Zm-4.547-5.335c.507 0 .77.088.77.088v1.556s-1.4-.472-2.274.525v4.6h-1.679V6.839h1.417a.25.25 0 0 1 .245.245v.28c.315-.367.997-.7 1.521-.7Zm-17.436 6.157c-.088-.21-.175-.438-.262-.63-.14-.315-.28-.612-.403-.892l-.017-.017a182.328 182.328 0 0 0-3.865-7.905l-.053-.105a34.206 34.206 0 0 1-.42-.823c-.174-.315-.349-.646-.629-.962A2.825 2.825 0 0 0 8.143.403c-.876 0-1.662.385-2.24 1.05a5.996 5.996 0 0 0-.629.961c-.137.276-.276.55-.42.822l-.052.106a205.14 205.14 0 0 0-3.865 7.904l-.018.035c-.122.28-.262.578-.402.892a11.58 11.58 0 0 0-.262.63c-.228.647-.298 1.259-.21 1.889a3.717 3.717 0 0 0 2.273 2.903c.455.193.927.28 1.417.28a4.62 4.62 0 0 0 2.204-.63c.717-.402 1.399-.979 2.168-1.818.77.84 1.47 1.416 2.17 1.819a4.62 4.62 0 0 0 2.203.629c.49 0 .98-.087 1.416-.28a3.71 3.71 0 0 0 2.274-2.903c.139-.612.07-1.224-.158-1.871Zm-7.888.91c-.944-1.19-1.556-2.31-1.766-3.254-.087-.402-.105-.752-.052-1.067.034-.28.14-.524.28-.734.332-.472.891-.77 1.539-.77.647 0 1.224.28 1.539.77.14.21.245.455.28.734.052.315.035.682-.053 1.067-.21.927-.822 2.046-1.767 3.253Zm6.978.821a2.599 2.599 0 0 1-1.591 2.047c-.42.174-.875.227-1.33.174a3.446 3.446 0 0 1-1.328-.454c-.63-.35-1.26-.892-1.994-1.697 1.154-1.416 1.854-2.71 2.116-3.865.123-.542.14-1.032.088-1.487a2.835 2.835 0 0 0-.473-1.19c-.542-.786-1.452-1.24-2.466-1.24-1.014 0-1.923.471-2.466 1.24-.244.35-.402.753-.472 1.19-.07.455-.052.962.088 1.487.262 1.154.979 2.466 2.116 3.883-.717.804-1.365 1.346-1.994 1.696a3.432 3.432 0 0 1-1.33.455 2.797 2.797 0 0 1-1.328-.175 2.6 2.6 0 0 1-1.592-2.046 2.893 2.893 0 0 1 .158-1.364c.052-.175.14-.35.227-.56.122-.28.262-.578.402-.875l.018-.035c1.206-2.606 2.5-5.264 3.847-7.852l.053-.105c.14-.262.28-.542.42-.805.14-.28.297-.542.49-.77a1.83 1.83 0 0 1 1.398-.646 1.83 1.83 0 0 1 1.4.647c.192.228.35.49.49.77.14.262.28.542.419.804l.053.105a231.501 231.501 0 0 1 3.83 7.87v.018c.14.28.262.594.402.874.087.21.175.385.227.56.14.454.192.892.122 1.346Z" fill="#FF5A5F"/></g><defs><clipPath id="a"><path fill="#fff" transform="translate(0 .403)" d="M0 0h56v17.472H0z"/></clipPath></defs></svg>
